X:1
T:Title
%%score [ ( 1 2 ) ( 3 4 ) ( 5 6 ) ( 7 8 ) ]
L:1/8
Q:1/4=216
M:2/2
K:C
V:1 treble nm="Soprano"
V:2 treble 
V:3 treble nm="Alto"
V:4 treble 
V:5 treble-8 nm="Tenor"
V:6 treble-8 
V:7 bass nm="Bass"
V:8 bass 
V:1
!p!"^Andante" A8 | A4 c4 B4 A4 | G4 F4 E8 | A8 F4 G4 | E4 A4 F2 G2 E4 |!p! D8 A8 | A4 c4 B4 A4 | %7
w: 1.Ver-|gan- gen ist mir|Glück und Heil|und al- le|Freud auf Er- * *|den, e-|lend bin ich ver-|
w: 2.Er-|bar- men tu ich|mich so hart,|da kommt aus|Buh- lers Hul- * *|de, die|mich in Angst und|
w: 3.Um|Hülf ich ruf, mein|höch- ster Hort,|er- hör mein|sehn- lich Kla- * *|gen! Schaff|mir Herz- lieb, dein|
 G4 F4 E8 | A8 F4 G4 | E4 A4 (F2 G2 E4) |!p! D8 A8 | B4!<(! c4 B8 | c8 d4 e4!<)! |!f! d8 e8 | %14
w: lo- ren gar,|mir mag nicht|bes- ser wer- * *|den. Bis|in den Tod|leid ich groß|Not, so|
w: Not hat bracht,|und wil- *|lich das dul- * *|de. Um|dich al- lein,|Herz- lieb- ste|mein, ist|
w: Bot- schaft schier,|ich muß *|Leid ver- za- * *|gen! Mein|trau- rig Herz|Leidt gro- ßen|Schmerz, wie|
 g4 f4 e4 d4 | ^c8 d8 |!p! A8!<(! B4 =c4 | B8 c8 | d4 e4 d8!<)! |!f! e8 g4 f4 | e4 d4 ^c8 | %21
w: ich dich Lieb muß|mei- den,|ge- schieht mir|ach, o|weh der Sach!|Muß isch mich|dein ver- je-|
w: mir kein Bürd zu|schwe- re;|wärs noch so|viel, ich|den- noch will|in dei- nem|Dienst er- ster-|
w: soll ichs ü- ber-|win- den?|Ich sorg, daß|schier der|Tod mit mir|will rin- gen|um das Le-|
 d8 !>!d8 | d4 =c4 A4 G4 |!p! E8 D8 | z16 |] %25
w: hen, groß|Leid wird mir ge-|sche- hen.||
w: ben, nach|frem- der Lieb nit|wer- ben.||
w: ben; tu|mir dein Tro- ste|ge- ben.||
V:2
 x8 | x16 | x16 | x16 | x16 | x16 | x16 | x16 | x12 G2 G2 | x16 | x16 | x16 | x16 | x16 | x16 | %15
w: |||||||||||||||
w: ||||||||lig- *|||||||
w: ||||||||sonst vor|||||||
 x16 | x16 | x16 | x16 | x16 | x16 | x16 | x16 | x16 | x16 |] %25
w: ||||||||||
w: ||||||||||
w: ||||||||||
V:3
!p! z4 F4 | E4 A4 G4 F4 | E4 D4 ^C8 | z4 E4 A,4 B,4 | ^C6 E2 (A,2 B,2 C4) |!p! D8 z4 F4 | %6
w: 1.Ver-|gan- gen ist mir|Glück und Heil|und al- le|Freud auf Er- * *|den, e-|
w: 2.Er-|bar- men tu ich|mich so hart,|da kommt aus|Buh- lers Hul- * *|de, die|
w: 3.Um|Hülf ich ruf, mein|höch- ster Hort,|er- hör mein|sehn- lich Kla- * *|gen! Schaff|
 E4 A4 G4 F4 | E4 D4 ^C8 | z4 E4 A,4 B,4 | ^C6 E2 (A,2 B,2 C4) |!p! D8 z4 E4 | G4!<(! A4 G8 | %12
w: lend bin ich ver-|lo- ren gar,|mir mag nicht|bes- ser wer- * *|den. Bis|in den Tod|
w: mich in Angst und|Not hat bracht,|und wil- *|lich das dul- * *|de. Um|dich al- lein,|
w: mir Herz- lieb, dein|Bot- schaft schier,|ich muß *|Leid ver- za- * *|gen! Mein|trau- rig Herz|
 z4 A4 B4 c4!<)! |!f! B8 z4 G4 | B4 A4 c4 A4 | A8 A8 |!p! z4 E4!<(! G4 A4 | G8 z4 A4 | %18
w: leid ich groß|Not, so|ich dich Lieb muß|mei- den,|ge- schieht mir|ach, o|
w: Herz- lieb- ste|mein, ist|mir kein Bürd zu|schwe- re;|wärs noch so|viel, ich|
w: Leidt gro- ßen|Schmerz, wie|soll ichs ü- ber-|win- den?|Ich sorg, daß|schier der|
 B4 c4 B8!<)! |!f! z4 G4 B4 A4 | c4 A4 A8 | A8 z4 F4 | F4 E4 C4 B,4 |!p! ^C8 D8 | z16 |] %25
w: weh der Sach!|Muß isch mich|dein ver- je-|hen, groß|Leid wird mir ge-|sche- hen.||
w: den- noch will|in dei- nem|Dienst er- ster-|ben, nach|frem- der Lieb nit|wer- ben.||
w: Tod mit mir|will rin- gen|um das Le-|ben; tu|mir dein Tro- ste|ge- ben.||
V:4
 x8 | x16 | x16 | x16 | x16 | x16 | x16 | x16 | x12 B,2 B,2 | x16 | x16 | x16 | x16 | x16 | x16 | %15
w: |||||||||||||||
w: ||||||||lig- *|||||||
w: ||||||||sonst vor|||||||
 x16 | x16 | x16 | x16 | x16 | x16 | x16 | x16 | x16 | x16 |] %25
w: ||||||||||
w: ||||||||||
w: ||||||||||
V:5
!p! z4 d4 | c4 e4 e4 c4 | c4 A4 A8 | z4 ^c4 d4 d4 | A6 ^c2 (d4 A4) |!p! A8 z4 d4 | c4 e4 e4 c4 | %7
w: 1.Ver-|gan- gen ist mir|Glück und Heil|und al- le|Freud auf Er- *|den, e-|lend bin ich ver-|
w: 2.Er-|bar- men tu ich|mich so hart,|da kommt aus|Buh- lers Hul- *|de, die|mich in Angst und|
w: 3.Um|Hülf ich ruf, mein|höch- ster Hort,|er- hör mein|sehn- lich Kla- *|gen! Schaff|mir Herz- lieb, dein|
 c4 A4 A8 | z4 ^c4 d4 d4 | A6 ^c2 (d4 A4) |!p! A8 z4 =c4 | e4!<(! e4 e8 | z4 e4 g4 g4 | %13
w: lo- ren gar,|mir mag nicht|bes- ser wer- *|den. Bis|in den Tod|leid ich groß|
w: Not hat bracht,|und wil- lig-|lich das dul- *|de. Um|dich al- lein,|Herz- lieb- ste|
w: Bot- schaft schier,|ich muß sonst|Leid ver- za- *|gen! Mein|trau- rig Herz|Leidt gro- ßen|
!f! g8!<)! z4 e4 | e4 c4 g4 f4 | e8 d8 |!p! z4 c4!<(! e4 e4 | e8 z4 e4 | g4 g4 g8!<)! | %19
w: Not, so|ich dich Lieb muß|mei- den,|ge- schieht mir|ach, o|weh der Sach!|
w: mein, ist|mir kein Bürd zu|schwe- re;|wärs noch so|viel, ich|den- noch will|
w: Schmerz, wie|soll ichs ü- ber-|win- den?|Ich sorg, daß|schier der|Tod mit mir|
!f! z4 e4 e4 c4 | g4 f4 e8 | f8 z4 A4 | _B4 G4 A4 d4 |!p! A8 A8 | z16 |] %25
w: Muß isch mich|dein ver- je-|hen, groß|Leid wird mir ge-|sche- hen.||
w: in dei- nem|Dienst er- ster-|ben, nach|frem- der Lieb nit|wer- ben.||
w: will rin- gen|um das Le-|ben; tu|mir dein Tro- ste|ge- ben.||
V:6
 x8 | x16 | x16 | x16 | x16 | x16 | x16 | x16 | x12 d2 d2 | x16 | x16 | x16 | x16 | x16 | x16 | %15
w: |||||||||||||||
w: |||||||||||||||
w: ||||||||* vor|||||||
 x16 | x16 | x16 | x16 | x16 | x16 | x16 | x16 | x16 | x16 |] %25
w: ||||||||||
w: ||||||||||
w: ||||||||||
V:7
!p! z4 D,4 | A,4 A,,4 E,4 F,4 | C,4 D,4 A,,8 | z4 A,,4 D,4 G,,4 | A,,6 A,,2 (D,2 G,,2 A,,4) | %5
w: 1.Ver-|gan- gen ist mir|Glück und Heil|und al- le|Freud auf Er- * *|
w: 2.Er-|bar- men tu ich|mich so hart,|da kommt aus|Buh- lers Hul- * *|
w: 3.Um|Hülf ich ruf, mein|höch- ster Hort,|er- hör mein|sehn- lich Kla- * *|
!p! D,8 z4 D,4 | A,4 A,,4 E,4 F,4 | C,4 D,4 A,,8 | z4 A,,4 D,4 G,,4 | A,,6 A,,2 (D,2 G,,2 A,,4) | %10
w: den, e-|lend bin ich ver-|lo- ren gar,|mir mag nicht|bes- ser wer- * *|
w: de, die|mich in Angst und|Not hat bracht,|und wil- lig-|lich das dul- * *|
w: gen! Schaff|mir Herz- lieb, dein|Bot- schaft schier,|ich muß sonst|Leid ver- za- * *|
!p! D,8 z4 A,4 | E,4!<(! A,4 E,8 | z4 A,4 G,4 C4!<)! |!f! G,8 z4 C4 | E,4 F,4 C,4 D,4 | A,8 D,8 | %16
w: den. Bis|in den Tod|leid ich groß|Not, so|ich dich Lieb muß|mei- den,|
w: de. Um|dich al- lein,|Herz- lieb- ste|mein, ist|mir kein Bürd zu|schwe- re;|
w: gen! Mein|trau- rig Herz|Leidt gro- ßen|Schmerz, wie|soll ichs ü- ber-|win- den?|
!p! z4 A,4!<(! E,4 A,4 | E,8 z4 A,4 | G,4 C4 G,8!<)! |!f! z4 C4 E,4 F,4 | C,4 D,4 A,8 | %21
w: ge- schieht mir|ach, o|weh der Sach!|Muß isch mich|dein ver- je-|
w: wärs noch so|viel, ich|den- noch will|in dei- nem|Dienst er- ster-|
w: Ich sorg, daß|schier der|Tod mit mir|will rin- gen|um das Le-|
 D,8 z4 D,4 | _B,,4 C,4 F,,4 G,,4 |!p! A,,8 [D,,D,]8 | z16 |] %25
w: hen, groß|Leid wird mir ge-|sche- hen.||
w: ben, nach|frem- der Lieb nit|wer- ben.||
w: ben; tu|mir dein Tro- ste|ge- ben.||
V:8
 x8 | x16 | x16 | x16 | x16 | x16 | x16 | x16 | x12 G,,2 G,,2 | x16 | x16 | x16 | x16 | x16 | x16 | %15
w: |||||||||||||||
w: |||||||||||||||
w: ||||||||* vor|||||||
 x16 | x16 | x16 | x16 | x16 | x16 | x16 | x16 | x16 | x16 |] %25
w: ||||||||||
w: ||||||||||
w: ||||||||||

